src/svg/adjust-brightness.svg

<svg version="1.2" baseProfile="tiny" xmlns="http://www.w3.org/2000/svg" width="24" height="24" viewBox="0 0 24 24"><path d="M12 6.934l1-2.934c.072-.213.078-.452 0-.682-.188-.553-.789-.848-1.341-.659-.553.189-.847.788-.659 1.341l1 2.934zM4 11c-.213-.072-.452-.078-.682 0-.553.188-.848.789-.659 1.341.189.553.788.847 1.341.659l2.934-1-2.934-1zM12 17.066l-1 2.934c-.072.213-.078.452 0 .682.188.553.789.848 1.341.659.553-.189.847-.788.659-1.341l-1-2.934zM21.341 11.657c-.188-.553-.788-.848-1.341-.659l-2.934 1 2.934 1c.213.072.452.078.682 0 .552-.188.847-.789.659-1.341zM5.636 7.05l2.781 1.367-1.367-2.781c-.1-.202-.265-.375-.482-.482-.524-.258-1.157-.042-1.415.482-.257.523-.041 1.157.483 1.414zM5.153 17.432c-.257.523-.041 1.156.482 1.414.523.257 1.157.041 1.414-.482l1.367-2.781-2.781 1.367c-.201.099-.374.263-.482.482zM18.363 16.949l-2.781-1.367 1.367 2.781c.1.202.264.375.482.482.523.257 1.156.041 1.414-.482s.042-1.157-.482-1.414zM18.844 6.566c.258-.524.042-1.157-.481-1.415-.523-.257-1.157-.041-1.414.482l-1.369 2.783 2.782-1.368c.202-.1.375-.264.482-.482zM12 7.5c-2.481 0-4.5 2.019-4.5 4.5s2.019 4.5 4.5 4.5 4.5-2.019 4.5-4.5-2.019-4.5-4.5-4.5z"/></svg>

<?xml version="1.0" encoding="iso-8859-1"?>
<!-- Generator: Adobe Illustrator 16.2.1, SVG Export Plug-In . SVG Version: 6.00 Build 0)  -->
<svg version="1.2" baseProfile="tiny" id="Layer_1" xmlns="http://www.w3.org/2000/svg" xmlns:xlink="http://www.w3.org/1999/xlink"
	 x="0px" y="0px" width="24px" height="24px" viewBox="0 0 24 24" xml:space="preserve">
<g>
	<path d="M12,6.934L13,4c0.072-0.213,0.078-0.452,0-0.682c-0.188-0.553-0.789-0.848-1.341-0.659C11.106,2.848,10.812,3.447,11,4
		L12,6.934z"/>
	<path d="M4,11c-0.213-0.072-0.452-0.078-0.682,0c-0.553,0.188-0.848,0.789-0.659,1.341C2.848,12.894,3.447,13.188,4,13l2.934-1
		L4,11z"/>
	<path d="M12,17.066L11,20c-0.072,0.213-0.078,0.452,0,0.682c0.188,0.553,0.789,0.848,1.341,0.659
		C12.894,21.152,13.188,20.553,13,20L12,17.066z"/>
	<path d="M21.341,11.657c-0.188-0.553-0.788-0.848-1.341-0.659l-2.934,1l2.934,1c0.213,0.072,0.452,0.078,0.682,0
		C21.234,12.81,21.529,12.209,21.341,11.657z"/>
	<path d="M5.636,7.05l2.781,1.367L7.05,5.636c-0.1-0.202-0.265-0.375-0.482-0.482C6.044,4.896,5.411,5.112,5.153,5.636
		C4.896,6.159,5.112,6.793,5.636,7.05z"/>
	<path d="M5.153,17.432c-0.257,0.523-0.041,1.156,0.482,1.414c0.523,0.257,1.157,0.041,1.414-0.482l1.367-2.781l-2.781,1.367
		C5.434,17.049,5.261,17.213,5.153,17.432z"/>
	<path d="M18.363,16.949l-2.781-1.367l1.367,2.781c0.1,0.202,0.264,0.375,0.482,0.482c0.523,0.257,1.156,0.041,1.414-0.482
		C19.103,17.84,18.887,17.206,18.363,16.949z"/>
	<path d="M18.844,6.566c0.258-0.524,0.042-1.157-0.481-1.415c-0.523-0.257-1.157-0.041-1.414,0.482L15.58,8.416l2.782-1.368
		C18.564,6.948,18.737,6.784,18.844,6.566z"/>
	<path d="M12,7.5c-2.481,0-4.5,2.019-4.5,4.5s2.019,4.5,4.5,4.5s4.5-2.019,4.5-4.5S14.481,7.5,12,7.5z"/>
</g>
</svg>
